src/assets/icons des/figma.svg

<?xml version="1.0" encoding="utf-8"?>
<!-- Generator: Adobe Illustrator 25.4.1, SVG Export Plug-In . SVG Version: 6.00 Build 0)  -->
<svg version="1.1" id="Capa_1" xmlns="http://www.w3.org/2000/svg" xmlns:xlink="http://www.w3.org/1999/xlink" x="0px" y="0px"
	 viewBox="0 0 384 512" style="enable-background:new 0 0 384 512;" xml:space="preserve">
<style type="text/css">
	.st0{fill:#727272;}
</style>
<path class="st0" d="M14,95.8C14,42.9,56.9,0,109.8,0h164.4C327.1,0,370,42.9,370,95.8c0,33.5-17.2,63-43.3,80.1
	C352.8,193,370,222.5,370,256c0,52.9-42.9,95.8-95.8,95.8h-2.1c-24.8,0-47.4-9.4-64.4-24.9v88.3c0,53.6-44,96.8-97.4,96.8
	C57.5,512,14,469.2,14,416.2c0-33.5,17.2-63,43.2-80.1C31.2,319,14,289.5,14,256s17.2-63,43.2-80.1C31.2,158.8,14,129.3,14,95.8z
	 M176.3,191.6h-66.5c-35.6,0-64.4,28.8-64.4,64.4c0,35.4,28.6,64.2,64,64.4c0.1,0,0.3,0,0.4,0h66.5V191.6z M207.7,256
	c0,35.6,28.8,64.4,64.4,64.4h2.1c35.5,0,64.4-28.8,64.4-64.4s-28.9-64.4-64.4-64.4h-2.1C236.5,191.6,207.7,220.4,207.7,256z
	 M109.8,351.8c-0.1,0-0.3,0-0.4,0c-35.4,0.2-64,29-64,64.4c0,35.5,29.2,64.4,64.9,64.4c36.3,0,66-29.4,66-65.4v-63.4H109.8z
	 M109.8,31.4c-35.6,0-64.4,28.8-64.4,64.4s28.8,64.4,64.4,64.4h66.5V31.4H109.8z M207.7,160.2h66.5c35.5,0,64.4-28.8,64.4-64.4
	s-28.9-64.4-64.4-64.4h-66.5V160.2z"/>
</svg>

<svg xmlns="http://www.w3.org/2000/svg" viewBox="0 0 384 512"><!--!Font Awesome Free 6.7.1 by @fontawesome - https://fontawesome.com License - https://fontawesome.com/license/free Copyright 2024 Fonticons, Inc.--><path d="M14 95.8C14 42.9 56.9 0 109.8 0H274.2C327.1 0 370 42.9 370 95.8C370 129.3 352.8 158.8 326.7 175.9C352.8 193 370 222.5 370 256C370 308.9 327.1 351.8 274.2 351.8H272.1C247.3 351.8 224.7 342.4 207.7 326.9V415.2C207.7 468.8 163.7 512 110.3 512C57.5 512 14 469.2 14 416.2C14 382.7 31.2 353.2 57.2 336.1C31.2 319 14 289.5 14 256C14 222.5 31.2 193 57.2 175.9C31.2 158.8 14 129.3 14 95.8zM176.3 191.6H109.8C74.2 191.6 45.4 220.4 45.4 256C45.4 291.4 74 320.2 109.4 320.4C109.5 320.4 109.7 320.4 109.8 320.4H176.3V191.6zM207.7 256C207.7 291.6 236.5 320.4 272.1 320.4H274.2C309.7 320.4 338.6 291.6 338.6 256C338.6 220.4 309.7 191.6 274.2 191.6H272.1C236.5 191.6 207.7 220.4 207.7 256zM109.8 351.8C109.7 351.8 109.5 351.8 109.4 351.8C74 352 45.4 380.8 45.4 416.2C45.4 451.7 74.6 480.6 110.3 480.6C146.6 480.6 176.3 451.2 176.3 415.2V351.8H109.8zM109.8 31.4C74.2 31.4 45.4 60.2 45.4 95.8C45.4 131.4 74.2 160.2 109.8 160.2H176.3V31.4H109.8zM207.7 160.2H274.2C309.7 160.2 338.6 131.4 338.6 95.8C338.6 60.2 309.7 31.4 274.2 31.4H207.7V160.2z"/></svg>
